src/graphics/buttons/start.svg

<?xml version="1.0" encoding="UTF-8" standalone="no"?>
<!-- Uploaded to: SVG Repo, www.svgrepo.com, Generator: SVG Repo Mixer Tools -->

<svg
   height="800px"
   width="800px"
   version="1.1"
   id="Layer_1"
   viewBox="0 0 506.4 506.4"
   xml:space="preserve"
   sodipodi:docname="start.svg"
   inkscape:version="1.4.3 (0d15f75042, 2025-12-25)"
   xmlns:inkscape="http://www.inkscape.org/namespaces/inkscape"
   xmlns:sodipodi="http://sodipodi.sourceforge.net/DTD/sodipodi-0.dtd"
   xmlns="http://www.w3.org/2000/svg"
   xmlns:svg="http://www.w3.org/2000/svg"
   xmlns:rdf="http://www.w3.org/1999/02/22-rdf-syntax-ns#"
   xmlns:cc="http://creativecommons.org/ns#"><defs
   id="defs5" /><sodipodi:namedview
   id="namedview5"
   pagecolor="#ffffff"
   bordercolor="#000000"
   borderopacity="0.25"
   inkscape:showpageshadow="2"
   inkscape:pageopacity="0.0"
   inkscape:pagecheckerboard="true"
   inkscape:deskcolor="#d1d1d1"
   inkscape:zoom="0.89875"
   inkscape:cx="399.44367"
   inkscape:cy="399.44367"
   inkscape:window-width="1556"
   inkscape:window-height="969"
   inkscape:window-x="44"
   inkscape:window-y="0"
   inkscape:window-maximized="1"
   inkscape:current-layer="Layer_1"
   showborder="false" />
<path
   id="outer_circle"
   style="fill:#13A289;stroke:#000000;stroke-opacity:1;stroke-width:8.229;stroke-dasharray:none"
   d="M 253.2 8.0002793 C 118 8.0002793 8.0002793 118 8.0002793 253.2 C 8.0002793 388.4 118 498.39972 253.2 498.39972 C 388.4 498.39972 498.39972 388.4 498.39972 253.2 C 498.39972 118 388.4 8.0002793 253.2 8.0002793 z "
   inkscape:label="outer_circle" />
<path
   style="fill:#54B265;"
   d="M427.6,104.4c34.4,40,54.8,92,54.8,148.8c0,126.8-102.8,229.6-229.6,229.6S23.6,380,23.6,253.2  S126.4,24,253.2,24C310,24,362,44.4,402,78.8C402,78.4,417.6,92.8,427.6,104.4z"
   id="inner_circle"
   inkscape:label="inner_circle" />
<path
   id="triangle"
   style="fill:#F4EFEF;stroke:#000000;stroke-opacity:1;stroke-width:8.229;stroke-dasharray:none"
   d="M 195.20014 134.80056 C 192.80014 134.80056 190.80024 135.20037 189.20024 136.40037 C 184.40025 139.20037 181.19997 145.19962 181.19996 153.1996 L 181.19996 353.2004 C 181.19997 361.20038 184.00025 367.59963 189.20024 369.99963 C 194.40024 372.79963 201.59975 371.59944 208.79975 366.39944 L 347.2005 271.1997 C 354.8005 265.9997 358.79973 259.6001 358.79973 252.4001 C 358.79973 245.6001 354.8004 239.20039 348.0004 234.40039 L 208.79975 139.19942 C 203.99975 136.39942 199.20014 134.80056 195.20014 134.80056 z "
   inkscape:label="triangle" />


<metadata
   id="metadata5"><rdf:RDF><cc:License
       rdf:about="http://artlibre.org/licence/lal"><cc:permits
         rdf:resource="http://creativecommons.org/ns#Reproduction" /><cc:permits
         rdf:resource="http://creativecommons.org/ns#Distribution" /><cc:permits
         rdf:resource="http://creativecommons.org/ns#DerivativeWorks" /><cc:requires
         rdf:resource="http://creativecommons.org/ns#ShareAlike" /><cc:requires
         rdf:resource="http://creativecommons.org/ns#Notice" /><cc:requires
         rdf:resource="http://creativecommons.org/ns#Attribution" /></cc:License><cc:Work
       rdf:about=""><cc:license
         rdf:resource="http://artlibre.org/licence/lal" /></cc:Work></rdf:RDF></metadata></svg>

<?xml version="1.0" encoding="iso-8859-1"?>
<!-- Uploaded to: SVG Repo, www.svgrepo.com, Generator: SVG Repo Mixer Tools -->
<svg height="800px" width="800px" version="1.1" id="Layer_1" xmlns="http://www.w3.org/2000/svg" xmlns:xlink="http://www.w3.org/1999/xlink" 
	 viewBox="0 0 506.4 506.4" xml:space="preserve">
<path style="fill:#13A289;" d="M502.4,253.2c0,137.6-111.6,249.2-249.2,249.2S4,390.8,4,253.2S115.6,4,253.2,4
	S502.4,115.6,502.4,253.2z"/>
<path style="fill:#54B265;" d="M427.6,104.4c34.4,40,54.8,92,54.8,148.8c0,126.8-102.8,229.6-229.6,229.6S23.6,380,23.6,253.2
	S126.4,24,253.2,24C310,24,362,44.4,402,78.8C402,78.4,417.6,92.8,427.6,104.4z"/>
<path style="fill:#F4EFEF;" d="M212.8,370c-17.2,12-31.6,4.4-31.6-16.8v-200c0-21.2,14.4-28.8,31.6-16.8l138,95.2
	c17.2,12,17.2,31.2,0,43.2L212.8,370z"/>
<path d="M195.2,379.6c-3.6,0-6.8-0.8-9.6-2.4c-7.6-4-12-12.8-12-24v-200c0-11.2,4.4-20,12-24c8-4,18-2.8,28,4l138.8,95.2
	c9.2,6.4,14.4,15.2,14.4,24.4c0,9.6-5.6,18.8-14.8,25.2l-138.8,95.2C207.2,377.6,200.8,379.6,195.2,379.6z M195.2,134.8
	c-2.4,0-4.4,0.4-6,1.6c-4.8,2.8-8,8.8-8,16.8v200c0,8,2.8,14.4,8,16.8c5.2,2.8,12.4,1.6,19.6-3.6l0,0l138.4-95.2
	c7.6-5.2,11.6-11.6,11.6-18.8c0-6.8-4-13.2-10.8-18l-139.2-95.2C204,136.4,199.2,134.8,195.2,134.8z"/>
<path d="M253.2,506.4C113.6,506.4,0,392.8,0,253.2S113.6,0,253.2,0s253.2,113.6,253.2,253.2S392.8,506.4,253.2,506.4z M253.2,8
	C118,8,8,118,8,253.2s110,245.2,245.2,245.2s245.2-110,245.2-245.2S388.4,8,253.2,8z"/>
</svg>
